static/images/logo-ugent-white.svg

<svg fill="none" height="48" viewBox="0 0 64 48" width="64" xmlns="http://www.w3.org/2000/svg" xmlns:xlink="http://www.w3.org/1999/xlink"><clipPath id="a"><path d="m0 0h63.1259v48h-63.1259z"/></clipPath><g clip-path="url(#a)" fill="#fff"><path d="m0 43.3612c0-3.529.907592-4.6389 3.22678-4.6389.70579 0 1.31069.2018 1.61338.4036v1.2103c-.30269-.2018-1.00849-.4036-1.51249-.4036-1.51249 0-2.01698.504-2.01698 3.5295 0 2.9245.40311 3.5294 1.71429 3.5294.4031 0 .7058-.1009 1.00849-.1009v-3.0254h-1.41159v-1.1094h2.62187v4.8402c-.30269.2022-1.31069.404-2.21828.404-2.420572 0-3.02547-1.3107-3.02547-4.6388zm6.65535-4.4366h4.13435v1.1094h-2.92456v2.7228h2.31916v1.009h-2.31916v3.0249h2.92456v1.1094h-4.13435zm5.54645 0h1.4116l2.8237 7.0589c-.1009-.7058-.2018-1.6138-.2018-2.42v-4.7398h1.2103v8.8741h-1.4116l-2.8237-7.1598c.1009.7058.2018 1.6134.2018 2.4201v4.7397h-1.2098v-8.7732zm6.2522 0h5.1429v1.1094h-1.9161v7.8656h-1.3107v-7.8661h-1.9161zm-18.252204-6.2522v-6.2523h1.310694v6.2523c0 1.3111.40359 1.7142 1.41159 1.7142.90759 0 1.41159-.4031 1.41159-1.7142v-6.2523h1.31119v6.2523c0 2.0169-.8067 2.8236-2.62188 2.8236-2.01649 0-2.823184-.8067-2.823184-2.8236zm6.958044-6.2523h1.41159l2.82367 7.059c-.1009-.7058-.2018-1.6139-.2018-2.4201v-4.7398h1.2103v8.9745h-1.4116l-2.82367-7.0589c.10089.7058.20179 1.6139.20179 2.4201v4.6388h-1.21028zm7.05896 0h1.3107v8.8736h-1.3107zm2.4201 0h1.3106l1.1094 4.6389c.2018.7058.4031 1.9161.504 2.8232.1009-.9071.3027-2.1169.504-2.8232l1.1094-4.6389h1.3112l-2.3192 8.8736h-1.3112zm6.958 0h4.1344v1.1094h-2.9246v2.7228h2.4201v1.009h-2.3192v3.0244h2.9246v1.0085h-4.1344v-8.8741zm5.6469 0h2.0169c1.6134 0 2.8237.6044 2.8237 2.6219 0 1.4116-.7058 2.1174-1.5125 2.4201l1.9161 3.8316h-1.4121l-1.7143-3.6303h-.8067v3.6303h-1.3107v-8.8736zm1.2102 1.1094v3.1259h.7058c1.0085 0 1.6139-.2018 1.6139-1.6134 0-1.3112-.7058-1.5125-1.6139-1.5125zm5.042 7.6643v-1.2103c.3022.2014.9076.4031 1.5125.4031.8062 0 1.4121-.3026 1.4121-1.2102 0-.7058-.4036-1.1094-.9081-1.6134l-.7058-.6049c-.8062-.7058-1.3107-1.2103-1.3107-2.4201 0-1.4116.9076-2.3192 2.6219-2.3192.6049 0 1.2103.2018 1.4116.3022v1.1099c-.3022-.2018-.8062-.3027-1.3107-.3027-.8067 0-1.4121.3027-1.4121 1.2103 0 .7058.4036 1.1094.9081 1.6134l.7058.6049c.8062.7058 1.3107 1.2103 1.3107 2.4201 0 1.4115-.9081 2.3191-2.6224 2.3191-.7053 0-1.3107-.2018-1.6129-.3022zm5.6469-8.7737h1.2102v8.8736h-1.3111v-8.8736zm2.4205 0h5.1429v1.1094h-1.9161v7.7647h-1.3112v-7.8656h-1.9156zm6.2518 0h4.1343v1.1094h-2.9245v2.7228h2.4201v1.009h-2.3192v3.0244h2.9245v1.0085h-4.1338v-8.8741zm5.6468 0h1.3117v8.8736h-1.3117zm2.521 0h5.1429v1.1094h-1.9156v7.7647h-1.3112v-7.8656h-1.9161z"/><path d="m3.93309 8.16785h-1.21028v8.16835h1.21028z"/><path d="m6.45406 8.16785h-1.21029v8.16835h1.21029z"/><path d="m8.975 8.16785h-1.21029v8.16835h1.21029z"/><path d="m11.496 8.16785h-1.2103v8.16835h1.2103z"/><path d="m14.017 8.16785h-1.2103v8.16835h1.2103z"/><path d="m16.5375 8.16785h-1.2098v8.16835h1.2098z"/><path d="m19.059 8.16785h-1.2103v8.16835h1.2103z"/><path d="m20.3696 17.6469h-18.85712v1.2102h18.85712z"/><path d="m19.0589 6.85714h-16.33613l-1.21029-1.21029h18.85712z"/><path d="m21.5799 20.1678h-21.378118v1.2103h21.378118z"/><path d="m10.8906 0-10.688818 3.83216v1.2098l10.688818-3.83167 10.6893 3.83167v-1.2098z"/></g></svg>

<svg width="64" height="48" viewBox="0 0 64 48" fill="none" xmlns="http://www.w3.org/2000/svg">
<g clip-path="url(#clip0)">
<path d="M0 43.3612C0 39.8322 0.907592 38.7223 3.22678 38.7223C3.93257 38.7223 4.53747 38.9241 4.84016 39.1259V40.3362C4.53747 40.1344 3.83167 39.9326 3.32767 39.9326C1.81518 39.9326 1.31069 40.4366 1.31069 43.4621C1.31069 46.3866 1.7138 46.9915 3.02498 46.9915C3.42808 46.9915 3.73078 46.8906 4.03347 46.8906V43.8652H2.62188V42.7558H5.24375V47.596C4.94106 47.7982 3.93306 48 3.02547 48C0.604898 48 0 46.6893 0 43.3612ZM6.65535 38.9246H10.7897V40.034H7.86514V42.7568H10.1843V43.7658H7.86514V46.7907H10.7897V47.9001H6.65535V38.9246ZM12.2018 38.9246H13.6134L16.4371 45.9835C16.3362 45.2777 16.2353 44.3697 16.2353 43.5635V38.8237H17.4456V47.6978H16.034L13.2103 40.538C13.3112 41.2438 13.4121 42.1514 13.4121 42.9581V47.6978H12.2023V38.9246H12.2018ZM18.454 38.9246H23.5969V40.034H21.6808V47.8996H20.3701V40.0335H18.454V38.9246ZM0.201796 32.6724V26.4201H1.51249V32.6724C1.51249 33.9835 1.91608 34.3866 2.92408 34.3866C3.83167 34.3866 4.33567 33.9835 4.33567 32.6724V26.4201H5.64686V32.6724C5.64686 34.6893 4.84016 35.496 3.02498 35.496C1.00849 35.496 0.201796 34.6893 0.201796 32.6724ZM7.15984 26.4201H8.57143L11.3951 33.4791C11.2942 32.7733 11.1933 31.8652 11.1933 31.059V26.3192H12.4036V35.2937H10.992L8.16833 28.2348C8.26922 28.9406 8.37012 29.8487 8.37012 30.6549V35.2937H7.15984V26.4201V26.4201ZM14.2188 26.4201H15.5295V35.2937H14.2188V26.4201ZM16.6389 26.4201H17.9495L19.0589 31.059C19.2607 31.7648 19.462 32.9751 19.5629 33.8822C19.6638 32.9751 19.8656 31.7653 20.0669 31.059L21.1763 26.4201H22.4875L20.1683 35.2937H18.8571L16.6389 26.4201ZM23.5969 26.4201H27.7313V27.5295H24.8067V30.2523H27.2268V31.2613H24.9076V34.2857H27.8322V35.2942H23.6978V26.4201H23.5969ZM29.2438 26.4201H31.2607C32.8741 26.4201 34.0844 27.0245 34.0844 29.042C34.0844 30.4536 33.3786 31.1594 32.5719 31.4621L34.488 35.2937H33.0759L31.3616 31.6634H30.5549V35.2937H29.2442V26.4201H29.2438ZM30.454 27.5295V30.6554H31.1598C32.1683 30.6554 32.7737 30.4536 32.7737 29.042C32.7737 27.7308 32.0679 27.5295 31.1598 27.5295H30.454ZM35.496 35.1938V33.9835C35.7982 34.1849 36.4036 34.3866 37.0085 34.3866C37.8147 34.3866 38.4206 34.084 38.4206 33.1764C38.4206 32.4706 38.017 32.067 37.5125 31.563L36.8067 30.9581C36.0005 30.2523 35.496 29.7478 35.496 28.538C35.496 27.1264 36.4036 26.2188 38.1179 26.2188C38.7228 26.2188 39.3282 26.4206 39.5295 26.521V27.6309C39.2273 27.4291 38.7233 27.3282 38.2188 27.3282C37.4121 27.3282 36.8067 27.6309 36.8067 28.5385C36.8067 29.2443 37.2103 29.6479 37.7148 30.1519L38.4206 30.7568C39.2268 31.4626 39.7313 31.9671 39.7313 33.1769C39.7313 34.5884 38.8232 35.496 37.1089 35.496C36.4036 35.496 35.7982 35.2942 35.496 35.1938ZM41.1429 26.4201H42.3531V35.2937H41.042V26.4201H41.1429ZM43.5634 26.4201H48.7063V27.5295H46.7902V35.2942H45.479V27.4286H43.5634V26.4201ZM49.8152 26.4201H53.9495V27.5295H51.025V30.2523H53.4451V31.2613H51.1259V34.2857H54.0504V35.2942H49.9166V26.4201H49.8152ZM55.462 26.4201H56.7737V35.2937H55.462V26.4201ZM57.983 26.4201H63.1259V27.5295H61.2103V35.2942H59.8991V27.4286H57.983V26.4201V26.4201Z" fill="white"/>
<path d="M3.93309 8.16785H2.72281V16.3362H3.93309V8.16785Z" fill="white"/>
<path d="M6.45406 8.16785H5.24377V16.3362H6.45406V8.16785Z" fill="white"/>
<path d="M8.975 8.16785H7.76471V16.3362H8.975V8.16785Z" fill="white"/>
<path d="M11.496 8.16785H10.2857V16.3362H11.496V8.16785Z" fill="white"/>
<path d="M14.017 8.16785H12.8067V16.3362H14.017V8.16785Z" fill="white"/>
<path d="M16.5375 8.16785H15.3277V16.3362H16.5375V8.16785Z" fill="white"/>
<path d="M19.059 8.16785H17.8487V16.3362H19.059V8.16785Z" fill="white"/>
<path d="M20.3696 17.6469H1.51248V18.8571H20.3696V17.6469Z" fill="white"/>
<path d="M19.0589 6.85714H2.72277L1.51248 5.64685H20.3696L19.0589 6.85714Z" fill="white"/>
<path d="M21.5799 20.1678H0.201782V21.3781H21.5799V20.1678Z" fill="white"/>
<path d="M10.8906 0L0.201782 3.83216V5.04196L10.8906 1.21029L21.5799 5.04196V3.83216L10.8906 0Z" fill="white"/>
</g>
<defs>
<clipPath id="clip0">
<rect width="63.1259" height="48" fill="white"/>
</clipPath>
</defs>
</svg>
